assets/components_previews/disclosure/light/tabs.svg

<svg xmlns="http://www.w3.org/2000/svg" width="320" height="232" fill="none" viewBox="0 0 320 232"><g filter="url(#a)"><rect width="179" height="40" x="71" y="94" fill="#fff" rx="12"/><rect width="57" height="32" x="75" y="98" fill="#AA99EC" rx="10"/><path fill="#FDFCFE" d="M94.626 119v-8.428h-3.29v-1.652h8.736v1.652h-3.29V119zm6.67.14c-1.414 0-2.324-.77-2.324-1.974 0-1.33 1.05-2.142 2.842-2.394l1.764-.252v-.364c0-.574-.392-.924-1.134-.924-.714 0-1.134.252-1.26.714h-2.002c.182-1.288 1.344-2.226 3.332-2.226 2.044 0 3.164.938 3.164 2.66v3.15c0 .476.056.924.21 1.47h-2.1c-.098-.336-.14-.7-.154-1.162-.448.854-1.26 1.302-2.338 1.302m-.224-2.254c0 .462.364.714.924.714.882 0 1.582-.56 1.582-1.19v-.658l-1.414.21c-.756.112-1.092.406-1.092.924m10.399 2.254c-1.162 0-1.988-.49-2.296-1.33V119h-2.058v-10.08h2.1v4.088c.35-.798 1.204-1.288 2.366-1.288 1.918 0 3.15 1.442 3.15 3.682 0 2.268-1.288 3.738-3.262 3.738m-.588-1.68c.98 0 1.666-.742 1.666-2.044s-.686-2.016-1.694-2.016c-.98 0-1.666.728-1.666 2.03s.686 2.03 1.694 2.03"/><path fill="#AA99EC" d="M151.626 119v-8.428h-3.29v-1.652h8.736v1.652h-3.29V119zm6.67.14c-1.414 0-2.324-.77-2.324-1.974 0-1.33 1.05-2.142 2.842-2.394l1.764-.252v-.364c0-.574-.392-.924-1.134-.924-.714 0-1.134.252-1.26.714h-2.002c.182-1.288 1.344-2.226 3.332-2.226 2.044 0 3.164.938 3.164 2.66v3.15c0 .476.056.924.21 1.47h-2.1c-.098-.336-.14-.7-.154-1.162-.448.854-1.26 1.302-2.338 1.302m-.224-2.254c0 .462.364.714.924.714.882 0 1.582-.56 1.582-1.19v-.658l-1.414.21c-.756.112-1.092.406-1.092.924m10.399 2.254c-1.162 0-1.988-.49-2.296-1.33V119h-2.058v-10.08h2.1v4.088c.35-.798 1.204-1.288 2.366-1.288 1.918 0 3.15 1.442 3.15 3.682 0 2.268-1.288 3.738-3.262 3.738m-.588-1.68c.98 0 1.666-.742 1.666-2.044s-.686-2.016-1.694-2.016c-.98 0-1.666.728-1.666 2.03s.686 2.03 1.694 2.03m40.743 1.54v-8.428h-3.29v-1.652h8.736v1.652h-3.29V119zm6.67.14c-1.414 0-2.324-.77-2.324-1.974 0-1.33 1.05-2.142 2.842-2.394l1.764-.252v-.364c0-.574-.392-.924-1.134-.924-.714 0-1.134.252-1.26.714h-2.002c.182-1.288 1.344-2.226 3.332-2.226 2.044 0 3.164.938 3.164 2.66v3.15c0 .476.056.924.21 1.47h-2.1c-.098-.336-.14-.7-.154-1.162-.448.854-1.26 1.302-2.338 1.302m-.224-2.254c0 .462.364.714.924.714.882 0 1.582-.56 1.582-1.19v-.658l-1.414.21c-.756.112-1.092.406-1.092.924m10.399 2.254c-1.162 0-1.988-.49-2.296-1.33V119h-2.058v-10.08h2.1v4.088c.35-.798 1.204-1.288 2.366-1.288 1.918 0 3.15 1.442 3.15 3.682 0 2.268-1.288 3.738-3.262 3.738m-.588-1.68c.98 0 1.666-.742 1.666-2.044s-.686-2.016-1.694-2.016c-.98 0-1.666.728-1.666 2.03s.686 2.03 1.694 2.03"/></g><defs><filter id="a" width="219" height="80" x="51" y="86" color-interpolation-filters="sRGB" filterUnits="userSpaceOnUse"><feFlood flood-opacity="0" result="BackgroundImageFix"/><feColorMatrix in="SourceAlpha" result="hardAlpha" values="0 0 0 0 0 0 0 0 0 0 0 0 0 0 0 0 0 0 127 0"/><feOffset dy="12"/><feGaussianBlur stdDeviation="10"/><feComposite in2="hardAlpha" operator="out"/><feColorMatrix values="0 0 0 0 0 0 0 0 0 0 0 0 0 0 0 0 0 0 0.03 0"/><feBlend in2="BackgroundImageFix" result="effect1_dropShadow_10061_23175"/><feColorMatrix in="SourceAlpha" result="hardAlpha" values="0 0 0 0 0 0 0 0 0 0 0 0 0 0 0 0 0 0 127 0"/><feOffset dy="2"/><feGaussianBlur stdDeviation="3"/><feComposite in2="hardAlpha" operator="out"/><feColorMatrix values="0 0 0 0 0 0 0 0 0 0 0 0 0 0 0 0 0 0 0.05 0"/><feBlend in2="effect1_dropShadow_10061_23175" result="effect2_dropShadow_10061_23175"/><feBlend in="SourceGraphic" in2="effect2_dropShadow_10061_23175" result="shape"/></filter></defs></svg>

<svg width="320" height="232" viewBox="0 0 320 232" fill="none" xmlns="http://www.w3.org/2000/svg">
<g filter="url(#filter0_dd_10061_23175)">
<rect x="71" y="94" width="179" height="40" rx="12" fill="white"/>
<rect x="75" y="98" width="57" height="32" rx="10" fill="#AA99EC"/>
<path d="M94.626 119V110.572H91.336V108.92H100.072V110.572H96.782V119H94.626ZM101.296 119.14C99.8819 119.14 98.9719 118.37 98.9719 117.166C98.9719 115.836 100.022 115.024 101.814 114.772L103.578 114.52V114.156C103.578 113.582 103.186 113.232 102.444 113.232C101.73 113.232 101.31 113.484 101.184 113.946H99.1819C99.3639 112.658 100.526 111.72 102.514 111.72C104.558 111.72 105.678 112.658 105.678 114.38V117.53C105.678 118.006 105.734 118.454 105.888 119H103.788C103.69 118.664 103.648 118.3 103.634 117.838C103.186 118.692 102.374 119.14 101.296 119.14ZM101.072 116.886C101.072 117.348 101.436 117.6 101.996 117.6C102.878 117.6 103.578 117.04 103.578 116.41V115.752L102.164 115.962C101.408 116.074 101.072 116.368 101.072 116.886ZM111.471 119.14C110.309 119.14 109.483 118.65 109.175 117.81V119H107.117V108.92H109.217V113.008C109.567 112.21 110.421 111.72 111.583 111.72C113.501 111.72 114.733 113.162 114.733 115.402C114.733 117.67 113.445 119.14 111.471 119.14ZM110.883 117.46C111.863 117.46 112.549 116.718 112.549 115.416C112.549 114.114 111.863 113.4 110.855 113.4C109.875 113.4 109.189 114.128 109.189 115.43C109.189 116.732 109.875 117.46 110.883 117.46Z" fill="#FDFCFE"/>
<path d="M151.626 119V110.572H148.336V108.92H157.072V110.572H153.782V119H151.626ZM158.296 119.14C156.882 119.14 155.972 118.37 155.972 117.166C155.972 115.836 157.022 115.024 158.814 114.772L160.578 114.52V114.156C160.578 113.582 160.186 113.232 159.444 113.232C158.73 113.232 158.31 113.484 158.184 113.946H156.182C156.364 112.658 157.526 111.72 159.514 111.72C161.558 111.72 162.678 112.658 162.678 114.38V117.53C162.678 118.006 162.734 118.454 162.888 119H160.788C160.69 118.664 160.648 118.3 160.634 117.838C160.186 118.692 159.374 119.14 158.296 119.14ZM158.072 116.886C158.072 117.348 158.436 117.6 158.996 117.6C159.878 117.6 160.578 117.04 160.578 116.41V115.752L159.164 115.962C158.408 116.074 158.072 116.368 158.072 116.886ZM168.471 119.14C167.309 119.14 166.483 118.65 166.175 117.81V119H164.117V108.92H166.217V113.008C166.567 112.21 167.421 111.72 168.583 111.72C170.501 111.72 171.733 113.162 171.733 115.402C171.733 117.67 170.445 119.14 168.471 119.14ZM167.883 117.46C168.863 117.46 169.549 116.718 169.549 115.416C169.549 114.114 168.863 113.4 167.855 113.4C166.875 113.4 166.189 114.128 166.189 115.43C166.189 116.732 166.875 117.46 167.883 117.46Z" fill="#AA99EC"/>
<path d="M208.626 119V110.572H205.336V108.92H214.072V110.572H210.782V119H208.626ZM215.296 119.14C213.882 119.14 212.972 118.37 212.972 117.166C212.972 115.836 214.022 115.024 215.814 114.772L217.578 114.52V114.156C217.578 113.582 217.186 113.232 216.444 113.232C215.73 113.232 215.31 113.484 215.184 113.946H213.182C213.364 112.658 214.526 111.72 216.514 111.72C218.558 111.72 219.678 112.658 219.678 114.38V117.53C219.678 118.006 219.734 118.454 219.888 119H217.788C217.69 118.664 217.648 118.3 217.634 117.838C217.186 118.692 216.374 119.14 215.296 119.14ZM215.072 116.886C215.072 117.348 215.436 117.6 215.996 117.6C216.878 117.6 217.578 117.04 217.578 116.41V115.752L216.164 115.962C215.408 116.074 215.072 116.368 215.072 116.886ZM225.471 119.14C224.309 119.14 223.483 118.65 223.175 117.81V119H221.117V108.92H223.217V113.008C223.567 112.21 224.421 111.72 225.583 111.72C227.501 111.72 228.733 113.162 228.733 115.402C228.733 117.67 227.445 119.14 225.471 119.14ZM224.883 117.46C225.863 117.46 226.549 116.718 226.549 115.416C226.549 114.114 225.863 113.4 224.855 113.4C223.875 113.4 223.189 114.128 223.189 115.43C223.189 116.732 223.875 117.46 224.883 117.46Z" fill="#AA99EC"/>
</g>
<defs>
<filter id="filter0_dd_10061_23175" x="51" y="86" width="219" height="80" filterUnits="userSpaceOnUse" color-interpolation-filters="sRGB">
<feFlood flood-opacity="0" result="BackgroundImageFix"/>
<feColorMatrix in="SourceAlpha" type="matrix" values="0 0 0 0 0 0 0 0 0 0 0 0 0 0 0 0 0 0 127 0" result="hardAlpha"/>
<feOffset dy="12"/>
<feGaussianBlur stdDeviation="10"/>
<feComposite in2="hardAlpha" operator="out"/>
<feColorMatrix type="matrix" values="0 0 0 0 0 0 0 0 0 0 0 0 0 0 0 0 0 0 0.03 0"/>
<feBlend mode="normal" in2="BackgroundImageFix" result="effect1_dropShadow_10061_23175"/>
<feColorMatrix in="SourceAlpha" type="matrix" values="0 0 0 0 0 0 0 0 0 0 0 0 0 0 0 0 0 0 127 0" result="hardAlpha"/>
<feOffset dy="2"/>
<feGaussianBlur stdDeviation="3"/>
<feComposite in2="hardAlpha" operator="out"/>
<feColorMatrix type="matrix" values="0 0 0 0 0 0 0 0 0 0 0 0 0 0 0 0 0 0 0.05 0"/>
<feBlend mode="normal" in2="effect1_dropShadow_10061_23175" result="effect2_dropShadow_10061_23175"/>
<feBlend mode="normal" in="SourceGraphic" in2="effect2_dropShadow_10061_23175" result="shape"/>
</filter>
</defs>
</svg>
